file-word-box.svg

<svg fill="currentColor" viewBox="0 0 24 24"><path d="M15.5 17H14l-2-7.5-2 7.5H8.5L6.1 7h1.7l1.54 7.5L11.3 7h1.4l1.97 7.5L16.2 7h1.7M19 3H5c-1.11 0-2 .89-2 2v14a2 2 0 0 0 2 2h14a2 2 0 0 0 2-2V5a2 2 0 0 0-2-2"/></svg>

<svg  viewBox="0 0 24 24" fill="currentColor"><path  d="M15.5,17H14L12,9.5L10,17H8.5L6.1,7H7.8L9.34,14.5L11.3,7H12.7L14.67,14.5L16.2,7H17.9M19,3H5C3.89,3 3,3.89 3,5V19A2,2 0 0,0 5,21H19A2,2 0 0,0 21,19V5C21,3.89 20.1,3 19,3Z"/></svg>
